X:1
T:Title
%%score { ( 1 4 ) | ( 2 3 ) }
L:1/8
M:4/4
K:F
V:1 treble nm="Grand Piano"
V:4 treble 
V:2 bass 
V:3 bass 
V:1
 z4 z2[Q:1/4=100] CD | F2 F2 D2 CC | F2 [EG]2 [FA]2 [FA][GB] | [Ac]2 [Ac]2 A2 FF | %4
 [EG]2 [FA]2 [EG]2 CD | F2 F2 D2 CC | F2 [CEG]2 [CFA]2 [CFA][CGB] | %7
[M:9/8] [FAc]2 [CFA]- [CFA] [FAc]2- [FAc][CFc]>[DFB] |[M:11/16] [CFA]-<[CFA][B,EG]-<[B,EG]F3/2 | %9
[M:3/8] CDF |[M:4/4] A2 A>A G2 F2 | [CFA]4- [CFA]CFA | c2 c>c c2 [CFA]2 | c6[K:bass][K:treble] z2 | %14
 [EB][FB][GB][FB] [EB]2 [EG]2 | AAAB c2 d[Be] |[M:9/8] z3 z .B2 z3 | %17
[M:7/8] [CFA]2 [B,EG]2 [A,F]3 |] %18
V:2
 z4 z2 [F,A,][F,A,C] | [F,A,C]2 [F,A,C]2 [F,B,]2 [F,A,][F,A,] | [F,A,C]2 [C,C]2 [F,C]2 [F,C][F,C] | %3
 [F,F]2 [F,F]2 [F,CF]2 [F,A,C][F,A,C] | [C,C]2 [F,C]2 [C,C]2 [F,A,][F,A,C] | %5
 [F,A,C]2 [F,A,C]2 [F,B,]2 [F,A,][F,A,] | [F,A,C]2 C,2 F,2 F,F, | %7
[M:9/8] F,2 F,- F, F,2- F,A,,>B,, |[M:11/16] C,-<C,C,-<C,[F,A,]3/2 |[M:3/8] [F,A,][F,A,C][F,A,C] | %10
[M:4/4] [F,CF]2 [F,CF]>[F,CF] [F,B,F]2 [C,A,]2 | F,C,D,E, F,[F,A,][F,A,C][F,C] | %12
 [A,F]2 [A,F]>[A,F] [A,F]2[K:bass] C,>C, | [A,F]6 [F,CF]2 | [C,C][D,C][E,C][D,C] [C,C]2 [C,C]2 | %15
 [F,CF][G,CF][A,CF][G,B,F] [F,A,F]2 [B,F][K:bass][G,C] |[M:9/8] [F,C]2 F,- F, z F- FA,,>B,, | %17
[M:7/8] C,2 C,2 F,3 |] %18
V:3
 x8 | x8 | x8 | x8 | x8 | x8 | x8 |[M:9/8] x9 |[M:11/16] x11/2 |[M:3/8] x3 |[M:4/4] x8 | x8 | %12
 F,6[K:bass] z2 | F,2 z2 z4 | x8 | x7[K:bass] x |[M:9/8] z3 z B,,2- B,, z z |[M:7/8] x7 |] %18
V:4
 x8 | x8 | x8 | x8 | x8 | x8 | x8 |[M:9/8] x9 |[M:11/16] x11/2 |[M:3/8] x3 |[M:4/4] x8 | x8 | x8 | %13
 z2[K:bass] C,2 F,2[K:treble] A2 | x8 | x8 |[M:9/8] [Af]2 [FAc]- [FAc] [B,Df]2- [B,Df][CFc]>[DFB] | %17
[M:7/8] x7 |] %18

